X:1
T:Collision March.
T:THE  CRUSH  COLLISION  MARCH.
T:SCOTT JOPLIN.
T:Author of “Combination March” “Harmony Club Waltz” &c.
T:Public Domain
T:Public Domain
T:Public Domain
T:Public Domain
C:Scott Joplin
Z:Public Domain
%%score { ( 1 3 ) | 2 }
L:1/8
M:4/4
K:F
V:1 treble nm="PIANO."
V:3 treble 
V:2 bass 
V:1
"^Introd." [Ff]2 | [Ee][Dd][^C^c][B,B] [A,A]2 [Ff]2 | [Ee][Dd][^C^c][B,B] [A,A]2 [^G,^G]2 | %3
 [A,A]2 [B,B]2 [A,A]2 [A^cea]2 | [dfad'][^c^c'][dfad'][cc'] [dfad']2 F2 |: %5
[Q:1/4=120]"^Tempo di Marcia."!mf! A4 A4 | A4 A4 | G3 A B2 d2 | Ad^cd A4 | G3 A B2 d2 | %10
 Ad^cd [Adf]4 | [E^G=Be]4 fe^de | [A^cea]2 [Acea]2 (A,^G, A,2) | A4 A4 | A4 A4 | G3 A B2 d2 | %16
 Ad^cd A4 | [Ad]3 [Ae] [Af]2 [Ad]2 | [Bdb]2 [^Gd^g]2 [A^cea]2 [E^G=Be]2 | [A^cea]4 ba^ga |1 %20
 [dfad']2 z2 z4 :|2 [dfad']2 [Af]2 [Ae]2 [Ad]2 |: e8- | e2 [Bc]2 [Bd]2 [Be]2 | (a6 f2) | %25
 [Fcf]2 [cc']2 [cc']3 [Aa] | [Bb-]8 | b2 [cc']2 [cc']3 [^G^g] | [Aa-]8 | %29
 [cfa]2 [A=f]2 [Ae]2 [Ad]2 | ^c8- | [EGc]2 [Aa]2 [Ee]2 [Gg]2 | [Ff]8 | [^da]2 [dc']2 [d=b]2 [da]2 | %34
 [Gg-]8 | [=Bdg]2 [fg]2 [fa]2 [f=b]2 |1 [egc']4 z2 [dfg]2 | [cegc']2 [Af]2 [Ae]2 [Ad]2 :|2 %38
 [egc']4 z2 [dfg]2 | [cegc']2 g2 e2 c2 |: [Bd]6 (eg) | [Bd]2 [B_d]2 [Bc]2 (fe) | [Ad]6 (fa) | %43
 [Ad]2 [A_d]2 [Ac]2 (fa) | (!arpeggio![egbd']egb) [egbd']2 [egbd']2 | ([egbd']c'bg ed_dc) | %46
 (!arpeggio![cfac']cfa) [cfac']2 [cfac']2 | (c'afc afcA) | [Bd]6 (eg) | [Bd]2 [B_d]2 [Bc]2 (fe) | %50
 [Ad]6 (fa) | [Ad]2 [Ad]2 [Af]2 [Aa]2 | (!arpeggio![d^fad']dfa) (!arpeggio![dgd']dgb) | %53
 (!arpeggio![A^cea]Ace) (!arpeggio![Ada]Ad=f) | (dfed dcfa) |1 [Bg]4 [Af]2 c2 :|2 [Bg]4 [Af]2 F2 |: %57
[K:Bb] d4 c3 d | e4 [Aea]4 | e4 d3 e | f4 !arpeggio![Bdfb]4 | [dd']4 [dd']3 [=B=b] | %62
 [cec']4 [Geg]4 | [cec']4 [cec']3 [Aa] | !arpeggio![Bdfb]4 !arpeggio![FBdf]4 | d4 c3 d | %66
 e4 [Aea]4 | e4 d3 e | f4 !arpeggio![Bdfb]4 | [Bb]4 [Gg]3 [Bb] | [dd']4 [ff']3 [dd'] | %71
 [c=ec']4 [c_ec']4 |1 [Bdfb]3 F GABc :|2 [Bdfb]6 z2 |: z2 [gbd'g']2 [^fc'd'^f']2 [dd']2 | %75
 [gg']2 [bd'b']2 [ac'a']2 [d^fad']2 | [gbd'g']4!8va(! [a^c'=e'a']4 | %77
 [d'^f'a'd'']2 [d'f'a'd'']2!8va)! z4 | z2 [fac'f']2 [=ebc'=e']2 [cc']2 | %79
 [ff']2 [ac'a']2 [gbg']2 [=egb=e']2 | [=fac'=f']4 [=egb=e']4 | [fac'f']2 [fac'f']2 z2 [C^FA]2 | %82
!ff! [C=EG]2 [=B,=FG]2 [CEG]2 [B,FG]2 |!ff! [C=EG]2 [=B,FG]2 [CEG]2 z2 |{/=B} c4{/B} c4 | %85
{/=B} c2{/B} c2 z2 [=E_Bc]2 | [FAc]2 [=EBc]2 [FAc]2 [EBc]2 | [FAc]2 [=EBc]2 [FAc]2 z2 | %88
{/=e} .f2{/e} .f2{/e} .f2{/e} .f2 |{/=e} .f2 z2!ff![I:staff +1] !fermata![A,,C,E,F,]4 | %90
!mf![I:staff -1] [Dd]4 [Cc]3 [Dd] | [_E_e]4 [Aea]4 | [Ee]4 [Dd]3 [Ee] | %93
 !arpeggio![FBdf]4 !arpeggio![Bdfb]4 | [dd']4 [dd']3 [=B=b] | [cec']4 [Geg]4 | %96
 [cec']4 [cec']3 [Aa] | !arpeggio![Bdfb]4 !arpeggio![FBdf]4 | [Dd]4 [Cc]3 [Dd] | [Ee]4 [Aea]4 | %100
 [Ee]4 [Dd]3 [Ee] | !arpeggio![FBdf]4 !arpeggio![Bdfb]4 | [Bb]4 [Gg]3 [Bb] | [dd']4 [ff']3 [dd'] | %104
 [c=ec']4 [c_ec']4 |1 [Bdfb]6 z2 :|2 [Bdfb]4 z2!fine! |] %107
V:2
 [F,,F,]2 | [E,,E,][D,,D,][^C,,^C,][B,,,B,,] [A,,,A,,]2 [F,,F,]2 | %2
 [E,,E,][D,,D,][^C,,^C,][B,,,B,,] [A,,,A,,]2 [^G,,,^G,,]2 | %3
 [A,,,A,,]2 [B,,,B,,]2 [A,,,A,,]2 [A,,A,]2 | [D,,D,][E,,E,][F,,F,][E,,E,] [D,,D,]2 z2 |: %5
 [D,,D,]2 z2 [E,,E,]2 z2 | [F,,F,]2 z2 [^F,,^F,]2 [A,,A,]2 | [B,,B,]2 [G,B,D]2 [G,,G,]2 [G,B,D]2 | %8
 [D,,D,]2 [A,DF]2 [D,,D,]2 [A,DF]2 | [B,,B,]2 [G,B,D]2 [G,,G,]2 [G,B,D]2 | %10
 [D,,D,]2 [A,DF]2 [D,,D,]2 [A,DF]2 | [E,,E,]2 [E,^G,=B,D]2 [E,,E,]2 [E,G,B,D]2 | %12
 [A,,A,]2 [A,,A,]2 (A,,^G,, A,,2) | [D,,D,]2 z2 [E,,E,]2 z2 | [F,,F,]2 z2 [^F,,^F,]2 [A,,A,]2 | %15
 [B,,B,]2 [G,B,D]2 [G,,G,]2 [G,B,D]2 | [D,,D,]2 [A,DF]2 [D,,D,]2 [A,DF]2 | %17
 [F,,F,]2 [A,DF]2 [D,,D,]2 [A,DF]2 | [G,,G,]2 [B,,B,]2 [A,,A,]2 [E,,E,]2 | %19
 [A,,,A,,]2 [A,^CEG]2 [^C,,^C,]2 [A,CEG]2 |1 [D,,D,]2 [A,,A,]2 [F,,F,]2 [E,,E,]2 :|2 %21
 [D,,D,]2 z2 z4 |: [C,,C,]2 [D,,D,]2 [E,,E,]2 [F,,F,]2 | [G,,G,]2 [B,CE]2 [C,,C,]2 [B,CE]2 | %24
 [F,,F,]2 [G,,G,]2 [A,,A,]2 [B,,B,]2 | [A,,A,]2 [A,CF]2 [F,,F,]2 [A,CF]2 | %26
 [G,,G,]2 [C,C]2 [B,,B,]2 [G,,G,]2 | [E,,E,]2 [B,CE]2 [C,,C,]2 [B,CE]2 | %28
 [F,,F,]2 [C,C]2 [A,,A,]2 [G,,G,]2 | [F,,F,]2 [A,CF]2 [A,CF]2 [A,CF]2 | %30
 [A,,,A,,]2 [=B,,,=B,,]2 [^C,,^C,]2 [D,,D,]2 | [E,,E,]2 [G,A,^C]2 ^C,2 [A,C]2 | %32
 D,2 [A,D]2 [A,D]2 [A,D]2 | [^F,,^F,]2 [A,C^D]2 [A,CD]2 [A,CD]2 | %34
 [G,,G,]2 [C,C]2 [=B,,=B,]2 [A,,A,]2 | [G,,G,]2 [G,=B,DF]2 [G,,G,]2 [G,B,DF]2 |1 %36
 [C,C]2 [E,E]2 [D,D]2 [=B,,=B,]2 | [C,C]2 z2 z4 :|2 [C,C]2 [E,E]2 [D,D]2 [=B,,=B,]2 | %39
 [C,C]2 z2 z4 |: [G,,G,]2 [B,CE]2 [C,,C,]2 [B,CE]2 | [E,,E,]2 [B,CE]2 [C,,C,]2 [B,CE]2 | %42
 [F,,F,]2 [A,CF]2 [C,,C,]2 [A,CF]2 | [F,,F,]2 [A,CF]2 [A,,A,]2 [A,CF]2 | %44
 [G,,G,]2 [B,CE]2 [C,,C,]2 [B,CE]2 | [E,,E,]2 [B,CE]2 [C,,C,]2 [B,CE]2 | %46
 [A,,A,]2 [A,CF]2 [F,,F,]2 [A,CF]2 | [A,,A,]2 [A,CF]2 [F,,F,]2 [A,CF]2 | %48
 [G,,G,]2 [B,CE]2 [C,,C,]2 [B,CE]2 | [E,,E,]2 [B,CE]2 [C,,C,]2 [B,CE]2 | %50
 [F,,F,]2 [A,CF]2 [C,,C,]2 [A,CF]2 | [F,,F,]2 [A,CF]2 [A,,A,]2 [A,CF]2 | %52
[K:treble] [D^FAc]2 [DFAc]2 [GB]2 [GB]2 | [A,^CEG]2 [A,CEG]2 [D=F]2 [DF]2 | %54
 [B,DFB]2 [=B,DF^G]2 [CFA]2 [CFA]2 |1[K:bass] [C,,C,][^C,,^C,][D,,D,][E,,E,] [F,,F,]2 z2 :|2 %56
 [C,,C,][^C,,^C,][D,,D,][E,,E,] [F,,F,]2 z2 |:[K:Bb] B,,2 [F,B,D]2 B,,2 [F,B,D]2 | %58
 C,2 [F,A,E]2 F,,2 [F,A,E]2 | C,2 [F,A,E]2 F,,2 [F,A,E]2 | B,,2 [F,B,D]2 D,2 [F,B,D]2 | %61
 =B,,2 [G,=B,DF]2 G,,2 [G,B,DF]2 | C,2 [G,CE]2 E,2 [G,CE]2 | A,,2 [F,A,CE]2 F,,2 [F,A,CE]2 | %64
 B,,2 [F,B,D]2 D,2 [F,B,D]2 | B,,2 [F,B,D]2 B,,2 [F,B,D]2 | C,2 [F,A,E]2 F,,2 [F,A,E]2 | %67
 C,2 [F,A,E]2 F,,2 [F,A,E]2 | B,,2 [F,B,D]2 D,2 [F,B,D]2 | E,2 [G,B,E]2 =E,2 [G,B,^C]2 | %70
 F,2 [B,D]2 D,2 [F,B,D]2 | C,2 [B,C=E]2 F,,2 [F,A,C_E]2 |1 B,,2 [F,B,D]2 F,,2 [F,B,D]2 :|2 %73
 [B,,B,]2 [F,,F,]2 [B,,,B,,]2 [D,,D,]2 |: [G,,G,]2 [B,,B,]2 [A,,A,]2 z2 | %75
 z2 [G,,G,]2 [^F,,^F,]2 [D,,D,]2 | [G,,G,]4 [A,,A,]4 | [D,,D,]2 [D,,D,]2 z2 [C,,C,]2 | %78
 [F,,F,]2 [A,,A,]2 [G,,G,]2 z2 | z2 [F,,F,]2 [=E,,=E,]2 [C,,C,]2 | [F,,F,]4 [C,,C,]4 | %81
 [F,,F,]2 [F,,F,]2 z2 _E,,2 | %82
"^The noise of the trains while running at the rate of sixty miles per hour," (=E,,_E,,D,,_D,, C,,D,,=D,,E,,) | %83
 (=E,,_E,,D,,_D,,) C,,2 z2 |[K:treble]"^Whistling for the crossing,"{/A} B4{/A} B4 | %85
{/A} B2{/A} B2 z2[K:bass] C,,2 |"^Noise of the trains" (A,,,_A,,,G,,,_G,,, F,,,G,,,=G,,,A,,,) | %87
 (=A,,,_A,,,G,,,_G,,,) F,,,2 z2 | %88
[K:treble]"^Whistle before\nthe collision"{/d} .e2{/d} .e2{/d} .e2{/d} .e2 | %89
{/d} .e2!ped! z2[K:bass]!ff!"^The\ncollision" [F,,,F,,]4!ped-up! | B,,2 [F,B,]2 B,,2 [F,B,]2 | %91
 C,2 [F,A,]2 F,,2 [F,A,]2 | C,2 [F,A,]2 F,,2 [F,A,]2 | B,,2 [F,B,D]2 D,2 [F,B,D]2 | %94
 =B,,2 [G,=B,DF]2 G,,2 [G,B,DF]2 | C,2 [G,CE]2 E,2 [G,CE]2 | A,,2 [F,A,E]2 F,,2 [F,A,E]2 | %97
 B,,2 [F,B,D]2 D,2 [F,B,D]2 | B,,2 [F,B,]2 B,,2 [F,B,]2 | C,2 [F,A,]2 F,,2 [F,A,]2 | %100
 C,2 [F,A,]2 F,,2 [F,A,]2 | B,,2 [F,B,D]2 D,2 [F,B,D]2 | E,2 [G,B,E]2 =E,2 [G,B,^C]2 | %103
 F,2 [B,D]2 D,2 [F,B,D]2 | C,2 [B,C=E]2 F,,2 [F,A,_E]2 |1 [B,,B,]2 [F,,F,]2 [B,,,B,,]2 [D,,D,]2 :|2 %106
 [B,,,B,,]4 z2 |] %107
V:3
 x2 | x8 | x8 | x8 | x8 |: z2 [A,DF]2 z2 [A,^CEG]2 | z2 [A,DF]2 z2 [CD^F]2 | x8 | x8 | x8 | x8 | %11
 x8 | x8 | z2 [A,DF]2 z2 [A,^CEG]2 | z2 [A,DF]2 z2 [CD^F]2 | x8 | x8 | x8 | x8 | x8 |1 x8 :|2 x8 |: %22
 z2 [GB]2 [GB]2 [GB]2 | [GB]2 x6 | z2 [Ac]2 [Ac]2 [Fd]2 | x8 | z2 [ce]2 [ce]2 [ce]2 | [ce]2 x6 | %28
 z2 [cf]2 [cf]2 [cf]2 | x8 | z2 [EG]2 [EG]2 [EG]2 | x8 | z2 [Ad]2 [Ad]2 [Ad]2 | x8 | %34
 z2 [ce]2 [ce]2 [ce]2 | x8 |1 x8 | x8 :|2 x8 | x8 |: x8 | x8 | x8 | x8 | x8 | x8 | x8 | x8 | x8 | %49
 x8 | x8 | x8 | x8 | x8 | x8 |1 x8 :|2 x8 |:[K:Bb] x8 | x8 | x8 | x8 | x8 | x8 | x8 | x8 | x8 | %66
 x8 | x8 | x8 | x8 | x8 | x8 |1 x8 :|2 x8 |: x8 | x8 | x4!8va(! x4 | x4!8va)! x4 | x8 | x8 | x8 | %81
 x8 | x8 | x8 | x8 | x8 | x8 | x8 | x8 | x8 | x8 | x8 | x8 | x8 | x8 | x8 | x8 | x8 | x8 | x8 | %100
 x8 | x8 | x8 | x8 | x8 |1 x8 :|2 x6 |] %107

